X:31
T: Mrs Jamieson's/ Hurricaine
C:A set put together by Sandra Crawshaw when she needed some Scottish music
T:Mrs Jameison's
R: jig
M: 6/8
L: 1/8
K: Amaj
E>AB c2E|F2E FA2|E>Ac e2f|e2c B2c|
E>AB c2E|F2E FA2|EAB c<ef|c2B A3|
e2A f2A|e2E F2A|e2A f2A|a2c B2c|
e>AA ABc|F2E F2A|EAB c<ef|c2BA3|
T: The Hurricane
R: reel
M: 4/4
L: 1/8
K: Amaj
d|:"A(cba)"cABG A2ED|CEAc "Bm"BB,B,d|"A"cABG Aaga|1"D(A4)"(3fga ed cAAd:|2(3fga ed cAAa||
|:"(tune)"gaea cAAa|gaea "Bm"fBBa|"(tune)"gaea ABcd|1"(cba)"(3edc dB cAAa:|2(3edc dB cAAe||
"(tune)"ac'e'c' aecA|"(EGBd)"GBEB GBEe|"(tune)"ac'e'c' aecA|"(ABcd)"defg aAAe|
"(tune)"ac'e'c' aecA|"(EGBd)"GBEB GBEd|"(edcA)"cABG Aaga|"D"(3fga ed cAA2|
|:"F#m"cfaf cfaf|"E"efge Bege|"F#m"fgaf cfaf|"E"gbeg "F#m"affc|
"F#m"fgaf cfaf|"E"efge Bege|"D"aefd ceaf|1"E4"ecdB cAAB:|2ecdB cAAd||

